X:17818
T:Trip To Windsor
R:Reel
M:4/4
L:1/8
Q:1/4=200
K:A
|A2A2 Ace=g|f2fe fefg|agfa feaf|ecAc BAFE||1 ecBc A3A:|2 ecBc A2cz/2d/2||
efec e/2f/2gae|faec BAcB|AFEC EFAB|cABc BAFE|
A,2CE FECE|A2cB Acea|fefg afed|1 cABc A2cd:||2 cABc A2c2|]
